!!!SOCIAL_FUNCTION: hand game and ghost dance songs
!!!PDT:	1929
!!!LING_GROUP: Caddoan
!!!LANG: Non-Tone
!!!REG: Oklahoma
!!!COM: Anon.
!!!OTL: Ghost Dance Song (c)
!!!ODT: <1920//
!!!MPN: Horse Chief [Spotted Horse Chief]
!!!MLC: Pawnee, Oklahoma, United States of America
!! Song was recorded either 1919 or 1920.
!!!AGN: monody
!!!SOCIAL_FUNCTION2: Ghost dance
!!!AMT: irregular
!!!RWG: Transcribed pitches, durations, and meters are only approximate.
!! Drum not recorded
**kern
*ICvox
*Imale
*clefF4
*k[f#]
*M2/4
*MM76
8B
8B
=1
4B
8B
8A
=2
8G
8r
8B
8B
*M3/4
=3
4B
8B
8A
8G
8r
*M2/4
=4
8B
8G
4G
*M3/4
=5
8E
8E
8E
8E
8E
8r
*M2/4
=6
8B
8G
4G
=7
8E
8E
8E
8E
=8
8E
8r
8E
8E
=9
4E
8E
8E
=10
8E
8r
8E
8E
=11
4E
8E
8E
=12
8E
8r
==
*-
!!!HAO:    The four songs next [this, the preceding two, and the following one] were
!!!HAO: also said to be Ghost dance songs, used in the dances incident to a hand game.
!!!HTX: [no free translation]
!!!CNT: Pawnee
!!!TXO: Pawnee
!!!OCY: United States
!!!OCL: Frances Densmore
!!!YOR: Frances Densmore, "Pawnee Music"
!!!YOR: Bulletin 93, page 82, No. 55
!!!PPR: Smithsonian Institution, Bureau of American Ethnology
!!!PPR: Government Printing Office
!!!PDT: 1926
!!!PPP: Washington, DC, United States of America
!!!YEC: Electronic Copyright 2000 David Huron
!!!YER: September 2000
!!!YEN: United States of America
!!!ENC: David Huron
!!!RDT: September 4, 2000
!!!EEV: Release 1.0
!!!AIN: vox
